X: 7
T: Irish Girl, The
Z: Daniel Parker
S: https://thesession.org/tunes/844#setting30835
R: reel
M: 4/4
L: 1/8
K: Dmix
AG||:FGAF DEFD|E~A,3 CDEG|FGAF D2FA|[1(3B^cd ec dBAG:|[2(3B^cd ec d3A||
fd{e}d^c dfaf|e~c3 efge|fd{e}d^c dfaf|gbag fdd2|
fdd/d/d fdad|e~c3 efge|dfaf gfed|^cABc dBAG|
